src/assets/svg/location.svg

<?xml version="1.0" encoding="iso-8859-1"?>
<!-- Generator: Adobe Illustrator 18.0.0, SVG Export Plug-In . SVG Version: 6.00 Build 0)  -->
<!DOCTYPE svg PUBLIC "-//W3C//DTD SVG 1.1//EN" "http://www.w3.org/Graphics/SVG/1.1/DTD/svg11.dtd">
<svg version="1.1" id="Capa_1" xmlns="http://www.w3.org/2000/svg" xmlns:xlink="http://www.w3.org/1999/xlink" x="0px" y="0px"
	 viewBox="0 0 264.018 264.018" style="enable-background:new 0 0 264.018 264.018;" xml:space="preserve">
<g>
	<path d="M132.009,0c-42.66,0-77.366,34.706-77.366,77.366c0,11.634,2.52,22.815,7.488,33.24c0.1,0.223,0.205,0.442,0.317,0.661
		l58.454,113.179c2.146,4.154,6.431,6.764,11.106,6.764c4.676,0,8.961-2.609,11.106-6.764l58.438-113.148
		c0.101-0.195,0.195-0.392,0.285-0.591c5.001-10.455,7.536-21.67,7.536-33.341C209.375,34.706,174.669,0,132.009,0z
		 M132.009,117.861c-22.329,0-40.495-18.166-40.495-40.495c0-22.328,18.166-40.494,40.495-40.494s40.495,18.166,40.495,40.494
		C172.504,99.695,154.338,117.861,132.009,117.861z"/>
	<path d="M161.81,249.018h-59.602c-4.143,0-7.5,3.357-7.5,7.5c0,4.143,3.357,7.5,7.5,7.5h59.602c4.143,0,7.5-3.357,7.5-7.5
		C169.31,252.375,165.952,249.018,161.81,249.018z"/>
</g>
<g>
</g>
<g>
</g>
<g>
</g>
<g>
</g>
<g>
</g>
<g>
</g>
<g>
</g>
<g>
</g>
<g>
</g>
<g>
</g>
<g>
</g>
<g>
</g>
<g>
</g>
<g>
</g>
<g>
</g>
</svg>

<svg width="265" height="265" viewBox="0 0 265 265" fill="none" xmlns="http://www.w3.org/2000/svg">
<g clip-path="url(#clip0_504_135)">
<path d="M132.009 0C89.349 0 54.643 34.706 54.643 77.366C54.643 89 57.163 100.181 62.131 110.606C62.231 110.829 62.336 111.048 62.448 111.267L120.902 224.446C123.048 228.6 127.333 231.21 132.008 231.21C136.684 231.21 140.969 228.601 143.114 224.446L201.552 111.298C201.653 111.103 201.747 110.906 201.837 110.707C206.838 100.252 209.373 89.037 209.373 77.366C209.375 34.706 174.669 0 132.009 0ZM132.009 117.861C109.68 117.861 91.514 99.695 91.514 77.366C91.514 55.038 109.68 36.872 132.009 36.872C154.338 36.872 172.504 55.038 172.504 77.366C172.504 99.695 154.338 117.861 132.009 117.861Z" fill="#7ACAE5"/>
<path d="M161.81 249.018H102.208C98.065 249.018 94.708 252.375 94.708 256.518C94.708 260.661 98.065 264.018 102.208 264.018H161.81C165.953 264.018 169.31 260.661 169.31 256.518C169.31 252.375 165.952 249.018 161.81 249.018Z" fill="#7ACAE5"/>
</g>
<defs>
<clipPath id="clip0_504_135">
<rect width="264.018" height="264.018" fill="white"/>
</clipPath>
</defs>
</svg>
